icons/calendar.svg

<?xml version="1.0" encoding="UTF-8" standalone="no"?>
<!-- Generator: Adobe Illustrator 16.0.5, SVG Export Plug-In . SVG Version: 6.00 Build 0)  -->

<svg
   xmlns:dc="http://purl.org/dc/elements/1.1/"
   xmlns:cc="http://creativecommons.org/ns#"
   xmlns:rdf="http://www.w3.org/1999/02/22-rdf-syntax-ns#"
   xmlns:svg="http://www.w3.org/2000/svg"
   xmlns="http://www.w3.org/2000/svg"
   xmlns:sodipodi="http://sodipodi.sourceforge.net/DTD/sodipodi-0.dtd"
   xmlns:inkscape="http://www.inkscape.org/namespaces/inkscape"
   version="1.1"
   id="Ebene_1"
   x="0px"
   y="0px"
   width="2048"
   height="2048"
   viewBox="0 0 2048 2048"
   enable-background="new 0 0 25.417 25.167"
   xml:space="preserve"
   inkscape:version="0.48.5 r10040"
   sodipodi:docname="calendar.svg"><metadata
   id="metadata9"><rdf:RDF><cc:Work
       rdf:about=""><dc:format>image/svg+xml</dc:format><dc:type
         rdf:resource="http://purl.org/dc/dcmitype/StillImage" /></cc:Work></rdf:RDF></metadata><defs
   id="defs7" /><sodipodi:namedview
   pagecolor="#ffffff"
   bordercolor="#666666"
   borderopacity="1"
   objecttolerance="10"
   gridtolerance="10"
   guidetolerance="10"
   inkscape:pageopacity="0"
   inkscape:pageshadow="2"
   inkscape:window-width="1280"
   inkscape:window-height="962"
   id="namedview5"
   showgrid="true"
   inkscape:zoom="0.20721232"
   inkscape:cx="-723.24629"
   inkscape:cy="968.21131"
   inkscape:window-x="-8"
   inkscape:window-y="-8"
   inkscape:window-maximized="1"
   inkscape:current-layer="Ebene_1"><inkscape:grid
     type="xygrid"
     id="grid2988"
     empspacing="5"
     visible="true"
     enabled="true"
     snapvisiblegridlinesonly="true"
     spacingx="128px"
     spacingy="128px" /><inkscape:grid
     type="xygrid"
     id="grid2991"
     empspacing="5"
     visible="true"
     enabled="true"
     snapvisiblegridlinesonly="true"
     spacingx="64px"
     spacingy="64px"
     color="#ff0000"
     opacity="0.1254902"
     empcolor="#ff0000"
     empopacity="0.25098039" /></sodipodi:namedview>
  <title
   id="title6">Calendar</title>
<path
   d="M 483.125 48 C 432.745 48 391.96875 88.6926 391.96875 138.96875 L 391.96875 466.6875 C 391.96875 516.88242 432.82639 557.65625 483.125 557.65625 C 533.505 557.65625 574.28125 516.90115 574.28125 466.625 L 574.28125 138.96875 C 574.28125 88.6926 533.505 48 483.125 48 z M 1581.2188 48 C 1530.9199 48 1490.1562 88.6926 1490.1562 138.96875 L 1490.1562 466.6875 C 1490.1562 516.88242 1530.92 557.65625 1581.2188 557.65625 C 1631.5988 557.65625 1672.4688 516.90115 1672.4688 466.625 L 1672.4688 138.96875 C 1672.4685 88.6926 1631.5986 48 1581.2188 48 z M 0 310.1875 L 0 2048 L 2048 2048 L 2048 310.1875 L 1702.5 310.1875 L 1702.5 314.3125 C 1740.4275 347.77578 1764.5312 396.59407 1764.5312 451.09375 C 1764.5312 552.05216 1682.4795 633.84375 1581.3125 633.84375 C 1480.227 633.84375 1398.1875 551.97094 1398.1875 451.09375 C 1398.1875 396.59407 1422.2097 347.77578 1460.2188 314.3125 L 1460.2188 310.1875 L 604.3125 310.1875 L 604.3125 314.3125 C 642.23993 347.77578 666.25 396.59407 666.25 451.09375 C 666.25 552.05216 584.21056 633.84375 483.125 633.84375 C 381.95805 633.84375 300 551.97094 300 451.09375 C 300 396.59407 324.02243 347.77578 362.03125 314.3125 L 362.03125 310.1875 L 0 310.1875 z M 56.96875 706.78125 L 1990.7812 706.78125 L 1990.7812 1990.9062 L 56.96875 1990.9062 L 56.96875 706.78125 z M 320 1024 L 320 1280 L 576 1280 L 576 1024 L 320 1024 z M 704 1024 L 704 1280 L 960 1280 L 960 1024 L 704 1024 z M 1088 1024 L 1088 1280 L 1344 1280 L 1344 1024 L 1088 1024 z M 1472 1024 L 1472 1280 L 1728 1280 L 1728 1024 L 1472 1024 z M 320 1408 L 320 1664 L 576 1664 L 576 1408 L 320 1408 z M 704 1408 L 704 1664 L 960 1664 L 960 1408 L 704 1408 z M 1088 1408 L 1088 1664 L 1344 1664 L 1344 1408 L 1088 1408 z "
   id="path3" />
</svg>

<svg xmlns="http://www.w3.org/2000/svg" width="2048" height="2048" viewBox="0 0 2048 2048">
    <title>Calendar</title>
    <path d="M483.125 48c-50.38 0-91.156 40.693-91.156 90.97v327.717c0 50.195 40.856 90.97 91.155 90.97 50.38 0 91.156-40.756 91.156-91.032V138.97c0-50.277-40.775-90.97-91.155-90.97zm1098.094 0c-50.3 0-91.064 40.693-91.064 90.97v327.717c0 50.195 40.764 90.97 91.063 90.97 50.38 0 91.25-40.756 91.25-91.032V138.97c-.002-50.277-40.87-90.97-91.25-90.97zM0 310.188V2048h2048V310.187h-345.5v4.125c37.928 33.464 62.03 82.282 62.03 136.782 0 100.958-82.05 182.75-183.217 182.75-101.086 0-183.126-81.873-183.126-182.75 0-54.5 24.023-103.318 62.032-136.78v-4.127H604.31v4.125c37.928 33.464 61.938 82.282 61.938 136.782 0 100.958-82.04 182.75-183.125 182.75C381.958 633.844 300 551.97 300 451.094c0-54.5 24.022-103.318 62.03-136.78v-4.127H0zM56.97 706.78h1933.81v1284.126H56.97V706.78zM320 1024v256h256v-256H320zm384 0v256h256v-256H704zm384 0v256h256v-256h-256zm384 0v256h256v-256h-256zM320 1408v256h256v-256H320zm384 0v256h256v-256H704zm384 0v256h256v-256h-256z"/>
</svg>
